packages/tokens/icons/starOutlined/size24Px.svg

<svg viewBox="0 0 24 24" fill="none" xmlns="http://www.w3.org/2000/svg" width="1em" height="1em"><path d="M5.93392 14.1086L3.07922 11.3523C2.20491 10.5082 2.64486 9.02917 3.83841 8.80013L8.1433 7.974C8.62175 7.88218 9.02581 7.56372 9.22689 7.11998L10.6337 4.01524C11.1659 2.8407 12.8341 2.8407 13.3663 4.01524L14.7731 7.11997C14.9742 7.56372 15.3782 7.88218 15.8567 7.974L20.1616 8.80013C21.3551 9.02917 21.7951 10.5082 20.9208 11.3523L18.0661 14.1086C17.7116 14.4509 17.5478 14.9454 17.6279 15.4316L18.3723 19.949C18.5759 21.1851 17.2645 22.1114 16.1676 21.5063L12.7246 19.6067C12.2736 19.3578 11.7264 19.3578 11.2754 19.6067L7.83237 21.5063C6.73554 22.1114 5.42405 21.1851 5.62772 19.949L6.37207 15.4316C6.45218 14.9454 6.2884 14.4509 5.93392 14.1086Z" stroke="currentColor"/></svg>

<svg xmlns="http://www.w3.org/2000/svg" fill="none" viewBox="0 0 24 24" width="1em" height="1em"><path stroke="currentColor" d="m5.934 14.109-2.855-2.757c-.874-.844-.434-2.323.76-2.552l4.304-.826a1.5 1.5 0 0 0 1.084-.854l1.407-3.105c.532-1.174 2.2-1.174 2.732 0l1.407 3.105a1.5 1.5 0 0 0 1.084.854l4.305.826c1.193.23 1.633 1.708.759 2.552l-2.855 2.757a1.5 1.5 0 0 0-.438 1.323l.744 4.517c.204 1.236-1.107 2.162-2.204 1.557l-3.443-1.9a1.5 1.5 0 0 0-1.45 0l-3.443 1.9c-1.096.605-2.408-.32-2.204-1.557l.744-4.517a1.5 1.5 0 0 0-.438-1.323Z"/></svg>
